www/images/link.svg

<svg fill="none" height="75" viewBox="0 0 75 75" width="75" xmlns="http://www.w3.org/2000/svg"><path d="m31.137 60.8348c-4.6728 4.6729-12.2962 4.6729-16.9717 0-4.67287-4.6729-4.67287-12.2963 0-16.9718l10.6058-10.6057c4.456-4.4561 11.5785-4.7021 16.2922-.6475.9492.8086 1.0606 2.2354.249 3.1817-.8086.9462-2.2353 1.0576-3.1816.249-2.9649-2.5517-7.3477-2.4317-10.1745.3984l-10.6058 10.6058c-2.9648 2.9648-2.9648 7.641 0 10.6057 2.9648 2.9649 7.641 2.9649 10.6058 0l10.0755-10.0755c.4189-.4306.9961-.6738 1.5966-.6767.6006-.0059 1.1807.2314 1.6055.6592.4248.4248.6621 1.0019.6592 1.6025-.0029.6035-.249 1.1777-.6797 1.5967l-10.0755 10.0755zm19.0928-19.0928c-4.456 4.4561-11.5785 4.7022-16.2923.6475v-.0029c-.4599-.3868-.7441-.9405-.791-1.5381-.0468-.6006.1436-1.1924.5332-1.6494.3926-.4541.9463-.7383 1.5469-.7823.5977-.0469 1.1894.1494 1.6436.542 2.9648 2.5517 7.3476 2.4317 10.1745-.3984l10.6057-10.6058c2.9648-2.9648 2.9648-7.641 0-10.6057-2.9648-2.9649-7.641-2.9649-10.6057 0l-10.0755 10.0755v-.003c-.419.4336-.9961.6797-1.5967.6827-.6035.0058-1.1807-.2315-1.6084-.6592-.4248-.4248-.6621-1.0049-.6592-1.6055.0059-.6035.249-1.1777.6826-1.5996l10.0755-10.0755c4.6729-4.67285 12.2963-4.67285 16.9718 0 4.6729 4.6729 4.6729 12.2963 0 16.9718z" fill="#fff"/></svg>

<svg width="75" height="75" viewBox="0 0 75 75" fill="none" xmlns="http://www.w3.org/2000/svg">
<path d="M31.137 60.8348C26.4642 65.5077 18.8408 65.5077 14.1653 60.8348C9.49243 56.1619 9.49243 48.5385 14.1653 43.863L24.7711 33.2573C29.2271 28.8012 36.3496 28.5552 41.0633 32.6098C42.0125 33.4184 42.1239 34.8452 41.3123 35.7915C40.5037 36.7377 39.077 36.8491 38.1307 36.0405C35.1658 33.4888 30.783 33.6088 27.9562 36.4389L17.3504 47.0447C14.3856 50.0095 14.3856 54.6857 17.3504 57.6504C20.3152 60.6153 24.9914 60.6153 27.9562 57.6504L38.0317 47.5749C38.4506 47.1443 39.0278 46.9011 39.6283 46.8982C40.2289 46.8923 40.809 47.1296 41.2338 47.5574C41.6586 47.9822 41.8959 48.5593 41.893 49.1599C41.8901 49.7634 41.644 50.3376 41.2133 50.7566L31.1378 60.8321L31.137 60.8348ZM50.2298 41.742C45.7738 46.1981 38.6513 46.4442 33.9375 42.3895V42.3866C33.4776 41.9998 33.1934 41.4461 33.1465 40.8485C33.0997 40.2479 33.2901 39.6561 33.6797 39.1991C34.0723 38.745 34.626 38.4608 35.2266 38.4168C35.8243 38.3699 36.416 38.5662 36.8702 38.9588C39.835 41.5105 44.2178 41.3905 47.0447 38.5604L57.6504 27.9546C60.6152 24.9898 60.6152 20.3136 57.6504 17.3489C54.6856 14.384 50.0094 14.384 47.0447 17.3489L36.9692 27.4244V27.4214C36.5502 27.855 35.9731 28.1011 35.3725 28.1041C34.769 28.1099 34.1918 27.8726 33.7641 27.4449C33.3393 27.0201 33.102 26.44 33.1049 25.8394C33.1108 25.2359 33.3539 24.6617 33.7875 24.2398L43.863 14.1643C48.5359 9.49145 56.1593 9.49145 60.8348 14.1643C65.5077 18.8372 65.5077 26.4606 60.8348 31.1361L50.2298 41.742Z" fill="white"/>
</svg>
